X: 15462
T: Glenburnie Rant
R: reel
M: 4/4
K: Eminor
|:E2EF E2EF|DEFG AFDF|E2EF E2B2|1 efed e2 e2:|2 efed e2B2||
|:e2 ef g2 fe|defg afdf|1 e2 ef g2fe|efed e2B2:|2 g2ag f2gf|efed e2||

